svgs/thin/speaker.svg

<svg xmlns="http://www.w3.org/2000/svg" viewBox="0 0 384 512"><!-- Font Awesome Pro 6.0.0-alpha2 by @fontawesome - https://fontawesome.com License - https://fontawesome.com/license (Commercial License) --><path d="M192 288C165.516 288 144 309.504 144 336S165.516 384 192 384S240 362.496 240 336S218.484 288 192 288ZM192 368C174.355 368 160 353.645 160 336S174.355 304 192 304S224 318.355 224 336S209.645 368 192 368ZM336 0H48C21.5 0 0 21.5 0 48V464C0 490.5 21.5 512 48 512H336C362.5 512 384 490.5 384 464V48C384 21.5 362.5 0 336 0ZM368 464C368 481.645 353.645 496 336 496H48C30.355 496 16 481.645 16 464V48C16 30.355 30.355 16 48 16H336C353.645 16 368 30.355 368 48V464ZM192 160C218.5 160 240 138.5 240 112S218.5 64 192 64S144 85.5 144 112S165.5 160 192 160ZM192 80C209.645 80 224 94.355 224 112S209.645 144 192 144S160 129.645 160 112S174.355 80 192 80ZM192 224C130.188 224 80 274.172 80 336S130.188 448 192 448S304 397.828 304 336S253.812 224 192 224ZM192 432C139.064 432 96 388.934 96 336C96 283.064 139.064 240 192 240S288 283.064 288 336C288 388.934 244.936 432 192 432Z"/></svg>

<svg xmlns="http://www.w3.org/2000/svg" viewBox="0 0 384 512"><!--! Font Awesome Pro 6.3.0 by @fontawesome - https://fontawesome.com License - https://fontawesome.com/license (Commercial License) Copyright 2023 Fonticons, Inc. --><path d="M192 288c-26.48 0-48 21.5-48 48S165.5 384 192 384s48-21.5 48-48S218.5 288 192 288zM192 368c-17.64 0-32-14.36-32-32s14.36-32 32-32s32 14.36 32 32S209.6 368 192 368zM336 0h-288C21.5 0 0 21.5 0 48v416C0 490.5 21.5 512 48 512h288c26.5 0 48-21.5 48-48v-416C384 21.5 362.5 0 336 0zM368 464c0 17.64-14.36 32-32 32h-288c-17.64 0-32-14.36-32-32v-416c0-17.64 14.36-32 32-32h288c17.64 0 32 14.36 32 32V464zM192 160c26.5 0 48-21.5 48-48S218.5 64 192 64S144 85.5 144 112S165.5 160 192 160zM192 80c17.64 0 32 14.36 32 32s-14.36 32-32 32s-32-14.36-32-32S174.4 80 192 80zM192 224c-61.81 0-112 50.17-112 112S130.2 448 192 448s112-50.17 112-112S253.8 224 192 224zM192 432c-52.94 0-96-43.07-96-96c0-52.94 43.06-96 96-96s96 43.06 96 96C288 388.9 244.9 432 192 432z"/></svg>
